public/img/field-10.svg

<svg width="68" height="76" viewBox="0 0 68 76" fill="none" xmlns="http://www.w3.org/2000/svg">
<path d="M64 67.1551L63.9645 67.125L64 67.0849L63.0984 66.3221L56.7921 60.5215C56.7921 60.5215 56.6807 60.6369 56.4983 60.8075L56.3311 60.9882C54.8926 62.3179 50.2832 66.1666 44.8735 66.2419C44.757 66.2419 44.6404 66.2419 44.5239 66.2419C41.6772 65.9358 38.9015 64.4204 36.0852 61.6154C31.4099 56.9388 26.2078 54.4148 20.6107 54.0786C20.4537 54.0786 20.2966 54.0786 20.1447 54.0786C19.3027 54.0046 18.4568 53.9828 17.612 54.0133C9.18338 54.3546 2.92268 59.9545 0.795251 62.1122C0.339375 62.5186 0.0658488 62.8096 0.00506529 62.8598L0.0354571 62.8899C0.0262093 62.9068 0.0142314 62.9221 0 62.9351L0.901623 63.6878L7.20792 69.4934L7.5017 69.2024L7.66886 69.0217C9.10233 67.687 13.7168 63.8383 19.1266 63.7681C19.2431 63.7681 19.3545 63.7681 19.471 63.7681C22.3228 64.0741 25.0935 65.5895 27.9098 68.3945C32.5901 73.0511 37.782 75.5751 43.3792 75.9213C43.5311 75.9213 43.6882 75.9213 43.8452 75.9213C44.6872 75.9955 45.5331 76.0172 46.3778 75.9865C54.8065 75.6453 61.0672 70.0504 63.1946 67.8927C63.6353 67.4712 63.9139 67.1852 63.9696 67.125" fill="#EFC825"/>
<path d="M66.8706 1.92511H5.12941C4.50552 1.92511 4 2.43063 4 3.05452C4 3.67826 4.50552 4.18393 5.12941 4.18393H12.0715V8.96918H11.4856C8.78569 8.96918 6.58906 11.1657 6.58906 13.8656V21.7363C6.58906 22.3602 7.09459 22.8658 7.71848 22.8658H8.29884C8.39206 23.9998 8.87047 25.1079 9.73606 25.9734L11.9767 28.2141C12.0223 28.5264 12.1233 28.7756 12.2412 28.9708L21.2359 61.2484C21.375 61.7478 21.8289 62.0749 22.3233 62.0749C22.4236 62.0749 22.5257 62.0613 22.6272 62.0332C23.2279 61.8659 23.5793 61.2429 23.4119 60.642L14.8079 29.766C16.2151 29.4032 17.7755 28.2363 18.8826 27.1294C19.905 26.1069 20.7258 24.9817 21.194 23.961C21.2729 23.7889 21.336 23.6268 21.3917 23.4698L25.8555 25.95C26.0293 26.0466 26.2173 26.0923 26.403 26.0923C26.8 26.0923 27.1849 25.8826 27.3913 25.5113C27.6943 24.966 27.4979 24.2784 26.9527 23.9756L20.9187 20.623C20.7025 20.4505 20.392 20.2854 19.9667 20.2228L19.4357 19.692C19.6667 19.4852 19.813 19.1855 19.813 18.8511V13.8656C19.813 11.1657 17.6165 8.96918 14.9166 8.96918H14.3304V4.18393H32.7976V8.96918H32.2118C29.5119 8.96918 27.3153 11.1657 27.3153 13.8656V18.855C27.3153 19.4789 27.8208 19.9844 28.4447 19.9844H28.6781C28.2065 21.101 28.1572 22.3357 28.5459 23.4952L29.5524 26.4985C29.4261 26.8822 29.4274 27.215 29.4746 27.4759L28.0571 60.8973C28.0306 61.5204 28.5144 62.047 29.1377 62.0735C29.154 62.0741 29.1702 62.0744 29.1863 62.0744C29.7879 62.0744 30.288 61.5998 30.3138 60.9927L31.6622 29.2024C31.9338 29.2441 32.2388 29.2676 32.5813 29.2676C33.6555 29.2676 34.9469 29.0329 36.2179 28.6071C37.589 28.1475 38.8252 27.5061 39.699 26.8014C39.8338 26.6927 39.9555 26.5853 40.0669 26.4794L51.4592 43.8266L45.3321 60.5566C45.1177 61.1424 45.4185 61.7912 46.0043 62.0056C46.1325 62.0524 46.2636 62.0747 46.3925 62.0747C46.8532 62.0747 47.2857 61.7909 47.4533 61.3334L53.0035 46.1782L63.1081 61.565C63.325 61.8952 63.6855 62.0746 64.0531 62.0746C64.2657 62.0746 64.4811 62.0146 64.672 61.889C65.1933 61.5468 65.3385 60.8465 64.9959 60.325L53.9712 43.5369L59.2793 29.0429C59.4159 28.8381 59.5374 28.5654 59.5886 28.2137L61.8289 25.9733C62.6713 25.1309 63.1733 24.0397 63.269 22.8656H63.8469C64.4708 22.8656 64.9763 22.3601 64.9763 21.7362V13.8656C64.9763 11.1657 62.7797 8.96918 60.0798 8.96918H59.4939V4.18393H66.8706C67.4945 4.18393 68 3.67826 68 3.05452C68 2.43079 67.4945 1.92511 66.8706 1.92511ZM11.3335 20.5324L12.2854 19.5804C13.3452 18.521 15.0693 18.5207 16.1288 19.5804L17.4155 20.867C16.4277 21.4046 15.4578 22.1905 14.7006 22.9477C13.8277 23.8206 13.1038 24.768 12.6191 25.6616L11.3335 24.376C10.2738 23.3163 10.2738 21.5922 11.3335 20.5324ZM17.2853 25.5321C16.0477 26.7696 14.8705 27.4232 14.2417 27.5841C14.3927 27.0005 15.008 25.8351 16.2981 24.545C17.5355 23.3074 18.7126 22.6539 19.3418 22.4931C19.1904 23.0767 18.5751 24.242 17.2853 25.5321ZM17.5535 13.8656V17.7215H17.4417C15.4885 16.0486 12.5368 16.1346 10.6882 17.9829L9.73621 18.935C9.37148 19.2997 9.07558 19.7073 8.84804 20.1418V13.8656C8.84804 12.4113 10.0312 11.228 11.4857 11.228H14.9161C16.3702 11.2281 17.5535 12.4113 17.5535 13.8656ZM29.5741 13.8656C29.5741 12.4113 30.7573 11.228 32.2118 11.228H35.642C37.0964 11.228 38.2798 12.4112 38.2798 13.8656V17.7215H37.9024C37.8693 17.7215 37.8367 17.7236 37.8042 17.7265C37.4904 17.455 37.1407 17.2208 36.7594 17.0309C35.5698 16.4385 34.2202 16.3445 32.9596 16.7672L31.6832 17.1952C31.2824 17.3295 30.9061 17.5113 30.5597 17.7345C30.515 17.7292 30.4696 17.7254 30.4234 17.7254H29.5741V13.8656ZM31.2654 24.5016L30.6877 22.7775C30.457 22.0892 30.5082 21.3522 30.8317 20.7026C31.1551 20.0528 31.7126 19.5679 32.4011 19.3372L33.6776 18.9092C34.3657 18.6784 35.1028 18.7297 35.7527 19.0532C36.4024 19.3766 36.8874 19.9341 37.1181 20.6226L37.6962 22.347C36.6808 22.383 35.5022 22.6102 34.3387 23.0002C33.168 23.3924 32.098 23.9178 31.2654 24.5016ZM35.5002 26.4654C34.4545 26.8158 33.4179 27.0087 32.5813 27.0087C32.2647 27.0087 32.0309 26.9804 31.8679 26.9458C32.2443 26.5198 33.2405 25.7503 35.0566 25.1418C36.1021 24.7913 37.1387 24.5983 37.9753 24.5983C38.292 24.5983 38.5257 24.6267 38.6888 24.6612C38.3123 25.0874 37.316 25.8567 35.5002 26.4654ZM55.2672 24.545C56.5571 25.8349 57.1726 27.0005 57.3236 27.5841C56.6946 27.4232 55.5174 26.7696 54.2801 25.5321C52.9901 24.2423 52.3748 23.0767 52.2236 22.4931C52.8525 22.6539 54.0296 23.3074 55.2672 24.545ZM60.2316 24.3763L58.9462 25.6616C58.4611 24.7678 57.7374 23.8205 56.8645 22.9477C56.1071 22.1905 55.1372 21.4046 54.1495 20.867L55.4361 19.5804C56.4961 18.5207 58.2203 18.5208 59.2797 19.5802L60.2318 20.5325C60.7451 21.0459 61.0279 21.7284 61.0279 22.4544C61.0279 23.1802 60.7451 23.8627 60.2316 24.3763ZM62.7174 13.8656V20.1391C62.4865 19.701 62.1891 19.2952 61.829 18.9353L60.877 17.9829C59.0287 16.1346 56.0769 16.0485 54.1236 17.7217H54.0117V13.8656C54.0117 12.4113 55.1949 11.228 56.6494 11.228H60.0798C61.5342 11.2281 62.7174 12.4113 62.7174 13.8656ZM57.2351 8.96933H56.6493C53.9494 8.96933 51.7527 11.1658 51.7527 13.8657V18.8511C51.7527 19.1857 51.8991 19.4852 52.13 19.692L51.5993 20.2228C51.1742 20.2854 50.8634 20.4505 50.6471 20.623L44.6132 23.9756C44.0679 24.2786 43.8715 24.966 44.1745 25.5113C44.3808 25.8828 44.7659 26.0923 45.1628 26.0923C45.3484 26.0923 45.5366 26.0465 45.7104 25.95L50.1741 23.4698C50.2297 23.6268 50.2928 23.7889 50.3718 23.961C50.8399 24.9817 51.6609 26.1069 52.6832 27.1294C53.7545 28.2006 55.2514 29.3298 56.6223 29.73L52.4272 41.185L40.9519 23.7112C40.8369 23.4564 40.6315 23.1591 40.2666 22.9066L39.2857 19.9802H39.4095C40.0334 19.9802 40.5389 19.4747 40.5389 18.8508V13.8656C40.5389 11.1657 38.3422 8.96918 35.6424 8.96918H35.0566V4.18393H57.2352V8.96933H57.2351Z" fill="#5A2E91"/>
</svg>

<svg width="68" height="76" fill="none" xmlns="http://www.w3.org/2000/svg"><path d="M64 67.155l-.035-.03.035-.04-.902-.763-6.306-5.8s-.111.115-.294.285l-.167.181c-1.438 1.33-6.048 5.179-11.458 5.254h-.35c-2.846-.306-5.622-1.822-8.438-4.627-4.675-4.676-9.877-7.2-15.474-7.536h-.466a20.487 20.487 0 00-2.533-.066c-8.429.342-14.69 5.942-16.817 8.1-.456.406-.73.697-.79.747l.03.03a.175.175 0 01-.035.045l.902.753 6.306 5.805.294-.29.167-.181c1.433-1.335 6.048-5.184 11.458-5.254h.344c2.852.306 5.622 1.822 8.439 4.626 4.68 4.657 9.872 7.181 15.47 7.527h.465c.842.075 1.688.096 2.533.066 8.428-.342 14.69-5.937 16.817-8.094.44-.422.719-.708.775-.768" fill="#EFC825"/><path d="M66.87 1.925H5.13a1.13 1.13 0 100 2.259h6.942v4.785h-.586a4.902 4.902 0 00-4.897 4.897v7.87c0 .624.506 1.13 1.13 1.13h.58a4.953 4.953 0 001.437 3.107l2.24 2.241c.046.312.147.562.265.757l8.995 32.277a1.13 1.13 0 002.176-.606l-8.604-30.876c1.407-.363 2.968-1.53 4.075-2.637 1.022-1.022 1.843-2.147 2.311-3.168a5.88 5.88 0 00.198-.491l4.463 2.48a1.13 1.13 0 101.097-1.974l-6.033-3.353a1.961 1.961 0 00-.952-.4l-.531-.531c.23-.207.377-.506.377-.84v-4.986c0-2.7-2.197-4.897-4.896-4.897h-.587V4.184h18.468v4.785h-.586a4.902 4.902 0 00-4.897 4.897v4.989c0 .624.506 1.13 1.13 1.13h.233a4.938 4.938 0 00-.132 3.51l1.006 3.003a1.973 1.973 0 00-.077.978l-1.418 33.421a1.13 1.13 0 102.257.096l1.348-31.79c.272.041.577.065.92.065 1.074 0 2.365-.235 3.636-.66 1.371-.46 2.607-1.102 3.481-1.807.135-.108.257-.216.368-.322l11.392 17.348-6.127 16.73a1.13 1.13 0 102.121.776l5.55-15.155 10.105 15.387a1.129 1.129 0 101.888-1.24L53.97 43.537l5.308-14.494c.137-.205.258-.478.31-.83l2.24-2.24a4.94 4.94 0 001.44-3.107h.578a1.13 1.13 0 001.13-1.13v-7.87c0-2.7-2.197-4.897-4.897-4.897h-.586V4.184h7.377a1.13 1.13 0 100-2.259zM11.334 20.532l.952-.952a2.72 2.72 0 013.844 0l1.287 1.287c-.988.538-1.958 1.323-2.715 2.08-.873.874-1.597 1.821-2.082 2.715l-1.285-1.286a2.72 2.72 0 010-3.844zm5.952 5c-1.237 1.238-2.415 1.891-3.043 2.052.15-.584.766-1.749 2.056-3.039 1.238-1.238 2.415-1.891 3.044-2.052-.152.584-.767 1.749-2.057 3.04zm.268-11.666v3.855h-.111a4.983 4.983 0 00-6.754.262l-.952.952c-.365.365-.66.772-.888 1.207v-6.276a2.64 2.64 0 012.638-2.638h3.43a2.64 2.64 0 012.637 2.638zm12.021 0a2.64 2.64 0 012.638-2.638h3.43a2.64 2.64 0 012.638 2.638v3.855h-.378c-.033 0-.065.003-.098.006a5.005 5.005 0 00-1.045-.696 4.943 4.943 0 00-3.8-.264l-1.276.428c-.4.134-.777.316-1.123.54a1.155 1.155 0 00-.137-.01h-.849v-3.86zm1.691 10.636l-.577-1.724a2.7 2.7 0 01.144-2.075 2.7 2.7 0 011.57-1.366l1.276-.428a2.7 2.7 0 012.075.144 2.7 2.7 0 011.365 1.57l.578 1.724c-1.015.036-2.194.263-3.357.653-1.171.392-2.241.918-3.074 1.502zm4.235 1.963c-1.045.35-2.082.544-2.919.544-.316 0-.55-.029-.713-.063.376-.426 1.372-1.196 3.189-1.804 1.045-.35 2.082-.544 2.918-.544.317 0 .55.029.714.063-.377.426-1.373 1.196-3.189 1.804zm19.767-1.92c1.29 1.29 1.906 2.455 2.057 3.04-.63-.162-1.807-.815-3.044-2.053-1.29-1.29-1.905-2.455-2.056-3.039.629.16 1.806.814 3.043 2.052zm4.965-.169l-1.286 1.286c-.485-.894-1.209-1.841-2.081-2.714-.758-.758-1.728-1.543-2.715-2.081l1.286-1.287a2.721 2.721 0 013.844 0l.952.953a2.7 2.7 0 01.796 1.921 2.7 2.7 0 01-.796 1.922zm2.485-10.51v6.273a4.99 4.99 0 00-.888-1.204l-.952-.952a4.982 4.982 0 00-6.753-.261h-.112v-3.856a2.64 2.64 0 012.637-2.638h3.43a2.64 2.64 0 012.638 2.638zm-5.482-4.897h-.586a4.902 4.902 0 00-4.896 4.897v4.985c0 .335.146.634.377.841l-.53.53a1.963 1.963 0 00-.953.401l-6.034 3.353a1.13 1.13 0 101.097 1.974l4.464-2.48c.056.157.119.319.198.491.468 1.02 1.289 2.146 2.311 3.168 1.072 1.072 2.568 2.2 3.94 2.601l-4.196 11.455-11.475-17.474a1.954 1.954 0 00-.685-.804l-.981-2.927h.123a1.13 1.13 0 001.13-1.13v-4.984c0-2.7-2.197-4.897-4.897-4.897h-.585V4.184h22.178v4.785z" fill="#5A2E91"/></svg>
